X:1
T:Mother Is Praying for Me
T:Elisha Albright Hoffman, 1887
T:Mother Is Praying for Me
T:Public Domain
T:Public Domain
T:Public Domain
T:Public Domain
T:Public Domain
C:Elisha Albright Hoffman, 1887
Z:Public Domain
%%score ( 1 2 ) ( 3 4 ) ( 5 6 )
L:1/8
M:none
K:Eb
V:1 treble 
V:2 treble 
V:3 treble 
V:4 treble 
V:5 bass 
V:6 bass 
V:1
 EF | G2 GG G2 FE | F2 EE E2 GA | B2 Bc B2 GG | F6 EF | G2 GA B2 AG | F2 FG (BA)GF | EFGA G2 F2 | %8
w: 1.~As the|sha- dows of even- ing are|clos- ing me round, And I’m|sit- ting so si- lent- ly|here, Sad and|lone is my heart, for I’m|think- ing of home, * And the|cher- ished ones who lin- ger|
w: 2.~There was|once a fond place in that|cir- cle for me, How the|thought brings a tear to my|eye! It was|next to my mo- ther, who|loved me so well, * I was|dear- est, in those days gone|
w: 3.~That dear|mo- ther is now at the|throne hum- bled low, And she|weeps for her son far a-|way; And she’s|plead- ing, as on- ly a|fond mo- ther can, * For the|pro- di- gal now gone a-|
w: 4.~O Thou|Fa- ther of mer- cies, Dis-|pens- er of grace, Hear the|prayer I am of- fer- ing|now, And for-|give my heart- wan- dr’ings, and|par- don my sin: * In con-|tri- tion at Thy feet I|
 E6 (DE) | F2 FG F2 Bc | B2 =AG A2 AB | c2 cc (B=A)GA | (B4 A2) EF | G2 GA B2 AG | F2 FG (BA)GF | %15
w: there. A *|voice I can hear from the|cot- tage as- cend, To the|Lord, with so ten- * der a|plea; * ’Tis the|voice of my mo- ther, its|sweet- ness I know, * Yes, my|
w: by; But~I *|knew not the worth of that|kind mo- ther’s love, Nor how|strong such af- fect- * ion could|be; * And a-|las! like a pro- di- gal|wan- dered a- way, * While my|
w: stray; Her *|tears, as they fall, like the|drops of the rain, Rise to|God in im- por- * tu- nate|plea, * As she|bends at the al- tar of|mer- cy, where oft * We to-|
w: bow. No *|long- er from love such as|Thine can I turn, N- o|long- er I’ll wan- * der from|Thee, * Fo- r-|give me, and an- swer in|mer- cy the prayer * That my|
 (EF)GA G G2 F | E6 ||"^Refrain" [GB]2 | [GB]2 [EG][FA] [GB]2 [^F=A][_Ac] | (G2 G2 G2) (EF) | %20
w: mo- * ther is pray- ing for|me.||||
w: mo- * ther was pray- ing for|me.|My|mo- ther is pray- ing for|me, * * My *|
w: ge- * ther had bend- ed the|knee.||||
w: mo- * ther is pray- ing for|me.||||
 [EG]2 [FA][GB] ([Ac][GB])[FA][EG] | ([EG]4 [DF]2) E[EF] | [EG]2 [EG][FA] [GB]2 [FA][EG] | %23
w: |||
w: is pray- ing for * me; ’Tis|the * voice of|mo- ther, its sweet- ness I|
w: |||
w: |||
 [DF]2 [DF][EG] ([GB][FA])[EG][DF] | (EF)[EG][EA] [EG] [EG]2 [DF] | E6 |] %26
w: |||
w: know, Yes, my mo- * ther is|pray- * ing for me. * *||
w: |||
w: |||
V:2
 x2 | x8 | x8 | x8 | x8 | x8 | x8 | x8 | x8 | x8 | x8 | x8 | x8 | x8 | x8 | x8 | x6 || x2 | x8 | %19
w: |||||||||||||||||||
w: |||||||||||||||||||
 B6 E2 | x8 | x6 E x | x8 | x8 | E2 x6 | E6 |] %26
w: |||||||
w: mo- ther||my|||||
V:3
 z2 | z2 [B,EG]2 [B,EG]2 [B,EG]2 | z2 [G,B,E]2 [G,B,E]2 [G,B,E]2 | z2 [B,EG]2 [B,EG]2 [B,EG]2 | %4
 z2 [B,DF]2 [B,DF]2 [B,DF]2 | z2 [B,EG]2 [B,EG]2 [B,EG]2 | z2 [DF][EG] ([GB][FA])[B,EG][A,DF] | %7
 z [A,F][B,EG][CEA] [B,EG]2 [A,DF]2 | z2 [G,B,E]2 [G,B,E]2 z2 | z B,[DF]B, [DF]B,[DF]B, | %10
 z C[EF=A]C [EFA]C[EFA]C | z C[EF=A]C [EFA]C[EFA]C | z (B,[DF]B, [B,DFA]2) z2 | %13
 z2 [B,EG]2 [B,EG]2 [B,EG]2 | z2 [DF][EG] ([GB][DFA])[B,EG][A,DF] | z [A,F][B,EG][CEA] [B,EG]2 GF | %16
 z ([G,B,E]2 [G,B,E]2) x || x2 | x8 | x8 | x8 | x8 | x8 | x8 | x8 | x6 |] %26
V:4
 x2 | x8 | x8 | x8 | x8 | x8 | x8 | x8 | x8 | x8 | x8 | x8 | x8 | x8 | x8 | x6 [A,D]2 | x6 || x2 | %18
 x8 | x8 | x8 | x8 | x8 | x8 | x8 | x6 |] %26
V:5
 z2 | E,6 z2 | E,6 z2 | E,6 z2 | B,,6 z2 | E,6 z2 | B,,6 z2 | E,3 A,, B,,2 B,,2 | E,6 z2 | %9
w: |~|~|~|~|~|~|~ ~ ~ ~|~|
 B,,6 z2 | F,6 z2 | F,6 z2 | B,,6 z2 | E,6 z2 | B,,6 z2 | E,3 A,, B,,2 B,,2 | E,6 || [E,E]2 | %18
w: ~|~|~|~|~|~|~ ~ ~ ~|~|~|
 [E,E]2 [E,B,][E,B,] [E,E]2 [E,E][E,E] | [E,E]2 [E,E]2 [E,E]2 (G,A,) | %20
w: ~ ~ ~ ~ ~ ~|~ for me, * *|
 [E,B,]2 [E,B,][E,E] [A,,E]2 [A,,C][=A,,C] | [B,,B,]6 [E,G,][F,A,] | %22
w: ||
 [E,B,]2 [E,B,][E,B,] [E,E]2 [E,B,][E,B,] | [B,,B,]2 [B,,B,][B,,B,] [B,,B,]2 [B,,B,][B,,A,] | %24
w: ||
 (G,A,)[E,B,][A,,C] [B,,B,] [B,,B,]2 [B,,A,] | [E,G,]6 |] %26
w: ||
V:6
 x2 | x8 | x8 | x8 | x8 | x8 | x8 | x8 | x8 | x8 | x8 | x8 | x8 | x8 | x8 | x8 | x6 || x2 | x8 | %19
 x6 E,2 | x8 | x8 | x8 | x8 | E,2 x6 | x6 |] %26

